!!!!SEGMENT: pl-kk--kk-i-382--093-002_haslinger--msza-gloria.krn
!!!cenid: 18xx:1598
!!!COM: Haslinger
!!!COM-rismID: pe30052852
!!!CDT:
!!!CNT:
!!!OPR: Msza
!!!OTL: Gloria
!!!OMV: 002
!!!PDT:
!!!AGN: Sacred; Mass
!!!SMS-siglum: PL-Kk
!!!SMS-shelfmark: Kk.I.382
!!!SMS-shelfwork: 093-002 M
!!!SMS-variant:
!!!SMS-altvar:
!!!NIFC-rismSourceID: 1001142971
!!!NIFC-islandoraID: pl-kk:6162
!!!URL-pdf-islandora: https://repozytorium.nifc.pl/islandora/object/pl-kk%3A6162/datastream/PDF/view
!!!URL-scan: https://polish.musicsources.pl/pl/lokalizacje/galeria/rekopisy/5994 @EN{Scan on Polish Music Herritage in Open Access Website} @PL{Skany w portalu Dziedzictwo Muzyki Polskiej w otwartym dostępie}
!!!ONB-nifc: S/T1 od 0056, T2 od 0131, A/B1 od 0201, B2 od 0274. Części Mszy: 1. Kyrie, 2. Gloria, 3. Graduale, 4. Credo, 5. Offertorium, 6. Sanctus, 7. Benedictus, 8. Agnus
!!!AIN: 2 empty 2 tenor
!!!key:
**kern	**text	**dynam	**kern	**text	**dynam	**kern	**text	**dynam	**kern	**text	**dynam
*part4	*part4	*part4	*part3	*part3	*part3	*part2	*part2	*part2	*part1	*part1	*part1
*staff4	*staff4	*	*staff3	*staff3	*	*staff2	*staff2	*	*staff1	*staff1	*
*Iempty	*	*	*Iempty	*	*	*Itenor	*	*	*Itenor	*	*
*I"Baſso IIdo	*	*	*I"Baſso Imo	*	*	*I"Tenor II	*	*	*I"Tenor I	*	*
*I'B II	*	*	*I'B I	*	*	*I'T II	*	*	*I'T1	*	*
*	*	*	*	*	*	*ITrd7c12	*	*	*ITrd7c12	*	*
*clefF4	*	*	*clefF4	*	*	*clefG2	*	*	*clefG2	*	*
*k[b-e-a-]	*	*	*k[b-e-a-]	*	*	*k[b-e-a-]	*	*	*k[b-e-a-]	*	*
*E-:	*	*	*E-:	*	*	*E-:	*	*	*E-:	*	*
*M4/4	*	*	*M4/4	*	*	*M4/4	*	*	*M4/4	*	*
*met(c)	*	*	*met(c)	*	*	*met(c)	*	*	*met(c)	*	*
*>[A,B,B,C]	*	*	*>[A,B,B,C]	*	*	*>[A,B,B,C]	*	*	*>[A,B,B,C]	*	*
=1	=1	=1	=1	=1	=1	=1	=1	=1	=1	=1	=1
*>A	*	*	*>A	*	*	*>A	*	*	*>A	*	*
*	*	*	*	*	*	*	*	*	*	*	*below
!	!	!	!	!	!	!LO:TX:t=P:problem=brak przenośnika oktawowego przy kluczu	!	!	!LO:TX:t=P:problem=brak przenośnika oktawowego przy kluczu	!	!
!LO:TX:a:i:t=Allo Maestoso	!	!LO:DY:rj	!LO:TX:a:i:t=Allo maestoso	!	!LO:DY:rj	!LO:TX:a:i:t=Allegro Maestoso	!	!	!LO:TX:a:i:t=Allegro Maestoso.	!	!LO:DY:rj
4.E-\	Glo-	f	4.E-\	Glo-	f	4.E-/	Glo-	f	4.E-/	Glo-	f
8E-\	-ri-	.	8E-\	-ri-	.	8E-/	-ri-	.	8E-/	-ri-	.
*2\right	*	*	*2\right	*	*	*	*	*	*	*	*
2G\	-a	.	2G\	-a	.	2G/	-a	.	2G/	-a	.
=2	=2	=2	=2	=2	=2	=2	=2	=2	=2	=2	=2
4.B-\	in	.	4.B-\	in	.	4.B-\	in	.	4.B-\	in	.
8BB-/	ex-	.	8BB-/	ex-	.	8B-\	ex-	.	8B-\	ex-	.
4C/	-cel-	.	4C/	-cel-	.	4c\	-cel-	.	4c\	-cel-	.
4D/	-sis	.	4D/	-sis	.	4d\	-sis	.	4d\	-sis	.
=3	=3	=3	=3	=3	=3	=3	=3	=3	=3	=3	=3
*	*	*	*	*	*	*2\right	*	*	*	*	*
1E-	De-	.	(2E-\	De-	.	(2e-\	De-	.	1e-	De-	.
.	.	.	2A-\)	.	.	2c\)	.	.	.	.	.
!LO:LB:g=original	!	!	!	!	!	!	!	!	!LO:LB:g=original	!	!
=4	=4	=4	=4	=4	=4	=4	=4	=4	=4	=4	=4
4E-\	-o	.	4G\	-o	.	4B-\	-o	.	4E-/	-o	.
4r	.	.	4r	.	.	4r	.	.	4r	.	.
!	!	!	!	!	!LO:DY:rj	!	!	!LO:DY:rj	!	!	!LO:DY:rj:t=po.
2r	.	.	4E-\	et	p	4G/	et	p	4B-\	et	p
.	.	.	4E-\	in	.	4G/	in	.	4B-\	in	.
!	!	!	!LO:LB:g=original	!	!	!LO:LB:g=original	!	!	!	!	!
=5	=5	=5	=5	=5	=5	=5	=5	=5	=5	=5	=5
*	*	*	*	*	*	*	*	*	*2\right	*	*
!	!	!LO:DY:rj	!	!	!	!	!	!	!	!	!
4D\	et	p	2.F\	ter-	.	2.A-/	ter-	.	2.B-\	ter-	.
4D\	in	.	.	.	.	.	.	.	.	.	.
4D\	ter-	.	.	.	.	.	.	.	.	.	.
4D\	-ra	.	4F\	-ra	.	4A-/	-ra	.	8c\L	-ra	.
.	.	.	.	.	.	.	.	.	8B-\J	.	.
=6	=6	=6	=6	=6	=6	=6	=6	=6	=6	=6	=6
4E-\	pax	.	4G\	pax	.	4B-\	pax	.	4B-\	pax	.
4r	.	.	4r	.	.	4r	.	.	4r	.	.
4E-\	pax	.	4G\	pax	.	4B-\	pax	.	4e-\	pax	.
4E-\	ho-	.	4G\	ho-	.	4B-\	ho-	.	4e-\	ho-	.
=7	=7	=7	=7	=7	=7	=7	=7	=7	=7	=7	=7
2.F\	-mi-	.	2.A-\	-mi-	.	2.B-\	-mi-	.	2.d\	-mi-	.
4F\	-ni-	.	4A-\	-ni-	.	4B-\	-ni-	.	8c\L	-ni-	.
.	.	.	.	.	.	.	.	.	8d\J	.	.
!	!	!	!	!	!	!	!	!	!LO:LB:g=original	!	!
=8	=8	=8	=8	=8	=8	=8	=8	=8	=8	=8	=8
4G\	-bus	.	4G\	-bus	.	4B-\	-bus	.	4e-\	-bus	.
4r	.	.	4r	.	.	4r	.	.	4r	.	.
4GG/	pax	.	4E-\	pax	.	4B-\	pax	.	4B-\	pax	.
4GG/	ho-	.	4E-\	ho-	.	4B-\	ho-	.	4B-\	ho-	.
.	.	.	.	.	.	.	.	f	.	.	.
!LO:LB:g=original	!	!	!	!	!	!	!	!	!	!	!
=9	=9	=9	=9	=9	=9	=9	=9	=9	=9	=9	=9
!	!	!	!	!	!LO:DY:rj	!	!	!	!	!	!LO:DY:rj
4.AA-/	-mi-	.	4E-\	mi-	f	4.A-/	-mi-	.	4.c\	-mi-	f
.	.	.	4A-\	-ni-	.	.	.	.	.	.	.
8AA-/	-ni-	.	.	.	.	8A-/	-ni-	.	8c\	-ni-	.
2BB-/	-bus	.	2F\	-bus	.	2A-/	-bus	.	2d\	-bus	.
!	!	!	!LO:LB:g=original	!	!	!LO:LB:g=original	!	!	!	!	!
=10	=10	=10	=10	=10	=10	=10	=10	=10	=10	=10	=10
4C/	bo-	.	4E-\	bo-	.	4G/	bo-	.	4e-\	bo-	.
4C/	-nae	.	4G\	-nae	.	4c\	-nae	.	4e-\	-nae	.
4AA-/	vo-	.	4A-\	vo-	.	4c\	vo-	.	4f\	vo-	.
4AA-/	-lun-	.	4A-\	-lun-	.	4c\	-lun-	.	4f\	-lun-	.
=11	=11	=11	=11	=11	=11	=11	=11	=11	=11	=11	=11
1BB-	-ta-	.	(2G\	-ta-	.	(2B-/	-ta-	.	(2B-\	-ta-	.
.	.	.	2F\)	.	.	2A-/)	.	.	2d\)	.	.
=12	=12	=12	=12	=12	=12	=12	=12	=12	=12	=12	=12
!LO:TX:t=P:problem=oznaczenie cody dopisane ołówkiem (powtórzone na początku Quoniam)	!	!	!LO:TX:a:t=P:problem=dopisane ołówkiem "x", poniżej sylaby tekstu dopisane "vi", kreska ołówkiem pociągnięta do początku części Quoniam	!	!	!	!	!	!	!	!
4E-\	-tis	.	4E-\	-tis	.	4G/	-tis	.	4e-\	-tis	.
!LO:TX:b:t=P:problem=podłożenie sylab do "glorificamus te" przesunięte	!	!	!	!	!	!LO:TX:t=P:problem=oznaczenie cody dopisane ołówkiem? (patrz notatka w S/T1)	!	!	!LO:TX:a:t=P:problem=dopisane ołówkiem "vide", przed adnotacją oznaczenie cody dopisane ołówkiem - to samo powtórzone przy początku następnej części, sugestia opuszczenia fragmentu?)	!	!
4e-\	la-	.	4e-\	lau-	.	4r	.	.	4r	.	.
4G\	-u-	.	4G\	-da-	.	2r	.	.	2r	.	.
4B-\	-da-	.	4B-\	-mus	.	.	.	.	.	.	.
!	!	!	!	!	!	!	!	!	!LO:LB:g=original	!	!
=13	=13	=13	=13	=13	=13	=13	=13	=13	=13	=13	=13
4E-\	-mus	.	4E-\	te	.	4r	.	.	4r	.	.
8C/	te	.	4r	.	.	8G/	be-	.	8e-\	be-	.
8C/	be-	.	.	.	.	8G/	-ne-	.	8e-\	-ne-	.
!LO:LB:g=original	!	!	!	!	!	!	!	!	!	!	!
4AA-/	-ne-	.	2r	.	.	4A-/	-di-	.	4f\	-di-	.
8BB-/	-di-	.	.	.	.	8F/	-ci-	.	8d\	-ci-	.
8BB-/	-ci-	.	.	.	.	8F/	-mus	.	8d\	-mus	.
=14	=14	=14	=14	=14	=14	=14	=14	=14	=14	=14	=14
4E-\	-mus	.	4r	.	.	4G/	te	.	4e-\	te	.
8e-\	te	.	8e-\	A-	.	4r	.	.	4r	.	.
8e-\	a-	.	8e-\	-do-	.	.	.	.	.	.	.
4G\	-do-	.	4G\	-ra-	.	2r	.	.	2r	.	.
4B-\	-ra-	.	4B-\	-mus	.	.	.	.	.	.	.
!	!	!	!LO:LB:g=original	!	!	!LO:LB:g=original	!	!	!	!	!
=15	=15	=15	=15	=15	=15	=15	=15	=15	=15	=15	=15
4E-\	-mus	.	4E-\	te	.	4r	.	.	8r	.	.
.	.	.	.	.	.	.	.	.	8e-\	glo-	.
4C/	te	.	4r	.	.	4G/	glo-	.	8e-\	-ri-	.
.	.	.	.	.	.	.	.	.	8e-\	-fi-	.
8AA-/	glo-	.	2r	.	.	8A-/	ri-	.	4f\	-ca-	.
8AA-/	-ri-	.	.	.	.	8A-/	-fi-	.	.	.	.
8BB-/	-fi-	.	.	.	.	8F/	-ca-	.	4d\	-mus	.
8BB-/	-ca-	.	.	.	.	8F/	-mus	.	.	.	.
=16	=16	=16	=16	=16	=16	=16	=16	=16	=16	=16	=16
4E-\	-mus te	.	4r	.	.	4G/	te	.	4e-\	te	.
!	!	!	!	!	!LO:DY:rj:t=po	!	!	!	!	!	!
4r	.	.	2E-\	Do-	p	4r	.	.	4r	.	.
2r	.	.	.	.	.	2r	.	.	2r	.	.
.	.	.	8E-\	-mi-	.	.	.	.	.	.	.
.	.	.	8E-\	-ne	.	.	.	.	.	.	.
!LO:LB:g=original	!	!	!	!	!	!	!	!	!LO:LB:g=original	!	!
=17	=17	=17	=17	=17	=17	=17	=17	=17	=17	=17	=17
!LO:TX:a:t=3.	!	!	!	!	!	!LO:TX:t=P:problem=skreślona nuta	!	!LO:DY:rj	!	!	!LO:DY:rj
1r	.	.	4E-\	De-	.	2B-\	Gra-	p	2d-X\	Gra-	p
.	.	.	4E-\	-us	.	.	.	.	.	.	.
.	.	.	4E-\	rex	.	4d-X\	-ti-	.	4f\	-ti-	.
!	!	!	!LO:SIC:v:l:s=cae	!	!	!	!	!	!	!	!
.	.	.	4E-\	ce-	.	4c\	-as	.	4e-\	-as	.
=18	=18	=18	=18	=18	=18	=18	=18	=18	=18	=18	=18
!	!	!	!	!	!	!LO:TX:t=P:problem=przekreślone nuty w takcie	!	!	!	!	!
1r	.	.	4E-\	-les-	.	2A-/	a-	.	2c\	a-	.
.	.	.	4E-\	-tis	.	.	.	.	.	.	.
.	.	.	4E-\	De-	.	4c\	-gi-	.	4e-\	-gi-	.
.	.	.	4E-\	-us	.	4B-\	-mus	.	4d-X\	-mus	.
!	!	!	!LO:LB:g=original	!	!	!	!	!	!	!	!
=19	=19	=19	=19	=19	=19	=19	=19	=19	=19	=19	=19
1r	.	.	4E-\	pa-	.	(>2G/	ti-	.	(2B-/	ti-	.
.	.	.	8E-\	-ter	.	.	.	.	.	.	.
.	.	.	8E-\	o-	.	.	.	.	.	.	.
.	.	.	4E-\	-mni-	.	4F/	.	.	4A-/	.	.
.	.	.	4E-\	-po-	.	4G/)	.	.	4B-/)	.	.
!	!	!	!	!	!	!LO:LB:g=original	!	!	!	!	!
=20	=20	=20	=20	=20	=20	=20	=20	=20	=20	=20	=20
4r	.	.	4AA-/	-tens	.	4A-/	-bi	.	4c\	-bi	.
2A-\	Do-	.	4r	.	.	2c\	pro-	.	2c\	pro-	.
.	.	.	2r	.	.	.	.	.	.	.	.
8G\	-mi-	.	.	.	.	4B-\	-pter	.	4e\	-pter	.
8G\	-ne	.	.	.	.	.	.	.	.	.	.
=21	=21	=21	=21	=21	=21	=21	=21	=21	=21	=21	=21
!	!	!	!LO:TX:t=10	!	!	!	!	!	!	!	!
4F\	fi-	.	1r	.	.	2A-/	mag-	.	2f\	mag-	.
4F\	-li	.	.	.	.	.	.	.	.	.	.
4En\	u-	.	.	.	.	2G/	-nam	.	2c\	-nam	.
4E\	-ni-	.	.	.	.	.	.	.	.	.	.
!	!	!	!	!	!	!	!	!	!LO:LB:g=original	!	!
=22	=22	=22	=22	=22	=22	=22	=22	=22	=22	=22	=22
8F\	-ge-	.	1r	.	.	2A-/	glo-	.	2c\	glo-	.
8F\	-ni-	.	.	.	.	.	.	.	.	.	.
4F\	-te	.	.	.	.	.	.	.	.	.	.
4D-X/	Je-	.	.	.	.	4F/	-ri-	.	4B-\	-ri-	.
4D-/	-su	.	.	.	.	4F/	-am	.	4B-\	-am	.
!LO:LB:g=original	!	!	!	!	!	!	!	!	!	!	!
=23	=23	=23	=23	=23	=23	=23	=23	=23	=23	=23	=23
2C/	Chri-	.	1r	.	.	2E/	tu-	.	2c\	tu-	.
4C/	-ste	.	.	.	.	4E/	-am	.	4c\	-am	.
4r	.	.	.	.	.	4r	.	.	4r	.	.
=24	=24	=24	=24	=24	=24	=24	=24	=24	=24	=24	=24
2F\	Do-	.	1r	.	.	2A/	Do-	.	2c\	Do-	.
!	!	!	!	!	!	!LO:TX:t=P:problem=kasownik dopisany ołówkiem	!	!	!	!	!
4F\	-mi-	.	.	.	.	4G/	-mi-	.	4B-\	-mi-	.
4F\	-ne	.	.	.	.	4A/	-ne	.	4c\	-ne	.
!	!	!	!	!	!	!LO:LB:g=original	!	!	!	!	!
=25	=25	=25	=25	=25	=25	=25	=25	=25	=25	=25	=25
4BB-/	De-	.	1r	.	.	4B-\	De-	.	4d-X\	De-	.
4B-\	-us	.	.	.	.	4B-\	-us	.	4d-\	-us	.
4B-\	A-	.	.	.	.	4B-\	A-	.	4d\	A-	.
4A-X\	-gnus	.	.	.	.	4B-\	-gnus	.	4d\	-gnus	.
!	!	!	!	!	!	!	!	!	!LO:LB:g=original	!	!
=26	=26	=26	=26	=26	=26	=26	=26	=26	=26	=26	=26
4G-X\	De-	.	1r	.	.	2B-\	De-	.	2e-\	De-	.
4G-\	-i	.	.	.	.	.	.	.	.	.	.
4F\	fi-	.	.	.	.	4B-\	-i	.	4d-X\	-i	.
8En\	-li-	.	.	.	.	4B-\	qui	.	4c\	qui	.
8E\	-us	.	.	.	.	.	.	.	.	.	.
!LO:LB:g=original	!	!	!	!	!	!	!	!	!	!	!
=27	=27	=27	=27	=27	=27	=27	=27	=27	=27	=27	=27
2F\	Pa-	.	1r	.	.	2A/	tol-	.	(4.c\	tol-	.
.	.	.	.	.	.	.	.	.	8d-X\)	.	.
4F\	-tris	.	.	.	.	4A/	-lis	.	4c\	-lis	.
4E-X\	Qui	.	.	.	.	4A/	pec-	.	4c\	pec-	.
=28	=28	=28	=28	=28	=28	=28	=28	=28	=28	=28	=28
4D-\	tol-	.	1r	.	.	4B-\	-ca-	.	4f\	-ca-	.
8D-\	-lis	.	.	.	.	8B-\	-ta	.	8f\	-ta	.
!LO:SIC:v:l:s=pec	!	!	!	!	!	!	!	!	!	!	!
8D-\	pe-	.	.	.	.	8B-\	pec-	.	8f\	pe(c)-	.
4C/	-ca-	.	.	.	.	4B-\	-ca-	.	4e\	-ca-	.
4C/	-ta	.	.	.	.	4B-\	-ta	.	4e\	-ta	.
!	!	!	!	!	!	!LO:LB:g=original	!	!	!	!	!
=29	=29	=29	=29	=29	=29	=29	=29	=29	=29	=29	=29
4F\	mun-	.	1r	.	.	4c\	mun-	.	4e-X\	mun-	.
4F\	-di	.	.	.	.	4c\	-di	.	4e-\	-di	.
!	!	!	!	!	!	!	!	!	!LO:LB:g=original	!	!
4G-X\	mi-	.	.	.	.	4B-\	mi-	.	4d-X\	mi-	.
4G-\	-se-	.	.	.	.	4B-\	-se-	.	4d-\	-se-	.
=30	=30	=30	=30	=30	=30	=30	=30	=30	=30	=30	=30
4E-\	-re-	.	1r	.	.	4B-/	-re-	.	4c\	-re-	.
4E-\	-re	.	.	.	.	4B-/	-re	.	4c\	-re	.
2F\	no-	.	.	.	.	2A/	no-	.	2c\	no-	.
!LO:LB:g=original	!	!	!	!	!	!	!	!	!	!	!
=31	=31	=31	=31	=31	=31	=31	=31	=31	=31	=31	=31
*	*	*	*^	*	*	*	*	*	*	*	*
*	*	*	*cue	*	*	*	*	*	*	*	*	*
!	!	!	!LO:TX:b:t=BII	!	!	!	!	!	!	!	!	!
4BB-/	-bis	.	4BB-\	4rC	bis	.	2B-/	-bis	.	2dn\	-bis	.
4BB-/	qui	.	4BB-\	2rE	qui	.	.	.	.	.	.	.
2BB-/	tol-	.	2BB-\	.	tol	.	4r	.	.	4r	.	.
*	*	*	*Xcue	*	*	*	*	*	*	*	*	*
.	.	.	.	4A-X\	Qui	.	4B-/	qui	.	4d\	qui	.
*	*	*	*v	*v	*	*	*	*	*	*	*	*
=32	=32	=32	=32	=32	=32	=32	=32	=32	=32	=32	=32
4BB-/	-lis	.	4A-\	tol-	.	4B-\	tol-	.	4d\	tol-	.
4BB-/	pec-	.	8A-\	-lis	.	8B-\	-lis	.	8d\	-lis	.
.	.	.	8A-\	pec-	.	8B-\	pec-	.	8d\	pec-	.
4BB-/	-ca-	.	4G\	-ca-	.	4B-\	-ca-	.	4e-\	-ca-	.
4BB-/	-ta	.	4F\	-ta	.	4B-\	-ta	.	4d\	-ta	.
!	!	!	!LO:LB:g=original	!	!	!LO:LB:g=original	!	!	!LO:LB:g=original	!	!
=33	=33	=33	=33	=33	=33	=33	=33	=33	=33	=33	=33
2BB-/	mun-	.	4En\	mun-	.	4B-\	mun-	.	4c#X\	mun-	.
.	.	.	4E\	-di	.	4B-\	-di	.	4c#\	-di	.
4BB-/	-di	.	4F\	sus-	.	4B-\	sus-	.	4d\	sus-	.
4BB-/	pec-	.	8F\	-ci-	.	8B-\	-ci-	.	8d\	-ci-	.
.	.	.	8F\	-pe	.	8B-\	-pe	.	8d\	-pe	.
=34	=34	=34	=34	=34	=34	=34	=34	=34	=34	=34	=34
4BB-/	-ca-	.	4.G-X\	de-	.	8A/	de-	.	8cn\	de-	.
.	.	.	.	.	.	8A/	-pre-	.	8c\	-pre-	.
4BB-/	-ta	.	.	.	.	8A/	-ca-	.	8c\	-ca-	.
.	.	.	8G-\	pre-	.	8A/	-ti-	.	8c\	-ti-	.
2BB-/	mun-	.	4F\	-ca-	.	4A/	-o-	.	4c\	-o-	.
!	!	!	!LO:SIC:v:l:s=ti	!	!	!	!	!	!	!	!
.	.	.	4E-\	-ci-	.	4A/	-nem	.	4c\	-nem	.
=35	=35	=35	=35	=35	=35	=35	=35	=35	=35	=35	=35
4BB-/	-di	.	4D\	-o-	.	4B-\	no-	.	4B-\	no-	.
4r	.	.	8B-\	-nem	.	8B-\	-stram	.	8B-\	-stram	.
.	.	.	8B-\	qui	.	8B-\	qui	.	8B-\	qui	.
!	!	!	!	!	!	!LO:LB:g=original	!	!	!LO:LB:g=original	!	!
2r	.	.	4B-\	se-	.	4d\	se-	.	4f\	se-	.
.	.	.	8A-X\	-des	.	8c\	-des	.	8f#X\	-des	.
.	.	.	8A-\	ad	.	8c\	ad	.	8f#\	ad	.
!LO:LB:g=original	!	!	!LO:LB:g=original	!	!	!	!	!	!	!	!
=36	=36	=36	=36	=36	=36	=36	=36	=36	=36	=36	=36
*^	*	*	*	*	*	*	*	*	*	*	*
*cue	*	*	*	*	*	*	*	*	*	*	*	*
!LO:TX:a:t=IB	!	!	!	!	!	!	!	!	!	!LO:SIC:v:l:s=dex	!	!
2G/	4r	.	.	2G\	dex-	.	4B\	dex-	.	4g\	des-	.
*Xcue	*	*	*	*	*	*	*	*	*	*	*	*
.	4GG/	Ad	.	.	.	.	8B\	-te-	.	8g\	-te-	.
.	.	.	.	.	.	.	8B\	-ram	.	8g\	-ram	.
!	!	!	!	!LO:SIC:v:l:s=te	!	!	!	!	!	!	!	!
2ryy	4GG/	dex-	.	4G\	ter-	.	4B\	pa-	.	4g\	pa-	.
.	8AAn/	-te-	.	4G\	-ram	.	8c\L	-tris	.	4fn\	-tris	.
.	8BBn/	-ram	.	.	.	.	8d\J	.	.	.	.	.
*v	*v	*	*	*	*	*	*	*	*	*	*	*
=37	=37	=37	=37	=37	=37	=37	=37	=37	=37	=37	=37
2C/	pa-	.	2G\	pa-	.	4c\	mi-	.	4e-X\	mi-	.
.	.	.	.	.	.	4c\	-se-	.	4e-\	-se-	.
2BB-X/	-tris	.	2G\	-tris	.	4c\	-re-	.	4e\	-re-	.
.	.	.	.	.	.	4c\	-re	.	4e\	-re	.
!	!	!	!	!	!	!LO:LB:g=original	!	!	!LO:LB:g=original	!	!
=38	=38	=38	=38	=38	=38	=38	=38	=38	=38	=38	=38
4AAn/	mi-	.	4F\	mi-	.	4c\	mi-	.	4fn\	mi-	.
4AA/	-se-	.	4c\	-se-	.	4c\	-se-	.	4f\	-se-	.
4AA-X/	-re-	.	4c\	-re-	.	4c\	-re-	.	4f#X\	-re-	.
4AA-/	-re	.	4c\	-re	.	4c\	-re	.	4f#\	-re	.
=39	=39	=39	=39	=39	=39	=39	=39	=39	=39	=39	=39
1GG	no-	.	(<4d\	no-	.	4B\	no-	.	1g	no-	.
.	.	.	4Bn\	.	.	4d\	.	.	.	.	.
.	.	.	4c\	.	.	4e-X\	.	.	.	.	.
.	.	.	4An\)	.	.	4c\	.	.	.	.	.
=40	=40	=40	=40	=40	=40	=40	=40	=40	=40	=40	=40
!	!	!	!LO:TX:a:t=P:problem=pojedyncza kreska taktowa	!	!	!	!	!	!	!	!
1GG;	-bis	.	1Bn;<	-bis	.	1G;	-bis	.	1d;	-bis	.
!LO:LB:g=original	!	!	!LO:LB:g=original	!	!	!	!	!	!	!	!
=41|!	=41|!	=41|!	=41|!	=41|!	=41|!	=41|!	=41|!	=41|!	=41|!	=41|!	=41|!
!LO:TX:t=P:problem=oznaczenie cody dopisane ołówkiem	!	!LO:DY:rj	!LO:TX:t=P:problem=dopisane ołówkiem "x"	!	!LO:DY:rj	!LO:TX:b:t=P:problem=oznaczenie cody dopisane ołówkiem?	!	!LO:DY:rj	!LO:TX:t=P:problem=dopisane ołówkiem "vide", przed adnotacją oznaczenie cody dopisane ołówkiem	!	!LO:DY:rj
4.E-\	Quo-	f	4.E-\	Quo-	f	4.E-/	Quo-	f	4.E-/	Quo-	f
8E-\	-ni-	.	8E-\	-ni-	.	8E-/	-ni-	.	8E-/	-ni-	.
4G\	-am	.	4G\	-am	.	4G/	-am	.	4G/	-am	.
4G\	tu	.	4G\	tu	.	4G/	tu	.	4G/	tu	.
!	!	!	!	!	!	!LO:LB:g=original	!	!	!	!	!
=42	=42	=42	=42	=42	=42	=42	=42	=42	=42	=42	=42
(4B-\	so-	.	(2B-\	so-	.	(2B-\	so-	.	(2B-\	so-	.
4BB-/	.	.	.	.	.	.	.	.	.	.	.
4C/	.	.	4c\)	.	.	4c\)	.	.	4c\)	.	.
4D/)	-lus	.	4d\	-lus	.	4d\	-lus	.	4d\	-lus	.
!	!	!	!	!	!	!	!	!	!LO:LB:g=original	!	!
=43	=43	=43	=43	=43	=43	=43	=43	=43	=43	=43	=43
1E-	san-	.	(<2e-\	san-	.	(2e-\	sanc-	.	1e-	san-	.
.	.	.	2A-\)	.	.	2c\)	.	.	.	.	.
=44	=44	=44	=44	=44	=44	=44	=44	=44	=44	=44	=44
4E-\	-ctus	.	4G\	-ctus	.	4B-\	-tus	.	4E-/	-ctus	.
4r	.	.	4r	.	.	4r	.	.	4r	.	.
!	!	!	!	!	!	!	!	!	!	!	!LO:DY:rj
2r	.	.	2r	.	.	2r	.	.	2B-\	tu	p
=45	=45	=45	=45	=45	=45	=45	=45	=45	=45	=45	=45
4r	.	.	4r	.	.	4r	.	.	(2.B-\	so-	.
!	!	!LO:DY:rj	!	!	!	!	!	!LO:DY:rj:t=po	!	!	!
4D\	tu	p	4F\	tu	.	4A-/	tu	p	.	.	.
2D\	so-	.	2F\	so-	.	2A-/	so-	.	.	.	.
.	.	.	.	.	.	.	.	.	8c\L	.	.
.	.	.	.	.	.	.	.	.	8B-\J)	.	.
!LO:LB:g=original	!	!	!LO:LB:g=original	!	!	!	!	!	!	!	!
=46	=46	=46	=46	=46	=46	=46	=46	=46	=46	=46	=46
4E-\	-lus	.	4E-\	-lus	.	4G/	-lus	.	4B-\	-lus	.
4r	.	.	4r	.	.	4r	.	.	4r	.	.
2E-\	tu	.	2G\	tu	.	2B-\	tu	.	2e-\	tu	.
!	!	!	!	!	!	!LO:LB:g=original	!	!	!	!	!
=47	=47	=47	=47	=47	=47	=47	=47	=47	=47	=47	=47
1F	so-	.	1A-	so-	.	1B-	so-	.	(2.d\	so-	.
.	.	.	.	.	.	.	.	.	8c\L	.	.
.	.	.	.	.	.	.	.	.	8d\J)	.	.
!	!	!	!	!	!	!	!	!	!LO:PB:g=original	!	!
=48	=48	=48	=48	=48	=48	=48	=48	=48	=48	=48	=48
4G\	-lus	.	4G\	-lus	.	4B-\	-lus	.	4e-\	-lus	.
4r	.	.	4r	.	.	4r	.	.	4r	.	.
!	!	!LO:DY:rj	!	!	!	!	!	!LO:DY:rj	!	!	!LO:DY:rj
2GG/	tu	f	2B-\	tu	.	2B-\	tu	f	2e-\	tu	f
=49	=49	=49	=49	=49	=49	=49	=49	=49	=49	=49	=49
2AA-/	so-	.	2A-\	so-	.	2c\	so-	.	2e-\	so-	.
!LO:N:acc=#	!	!	!	!	!	!	!	!	!	!	!
2AAn/	-lus	.	2c\	-lus	.	2c\	-lus	.	2f\	-lus	.
=50	=50	=50	=50	=50	=50	=50	=50	=50	=50	=50	=50
4.BB-/	Do-	.	4.B-\	do-	.	4.d\	Do-	.	4.f\	Do-	.
8BB-/	-mi-	.	8A-\	-mi-	.	8d\	-mi-	.	8f\	-mi-	.
4BBn/	-nus	.	4G\	-nus	.	4d\	-nus	.	4g\	-nus	.
4BB/	tu	.	4G\	tu	.	4d\	tu	.	4g\	tu	.
!LO:PB:g=original	!	!	!LO:LB:g=original	!	!	!	!	!	!	!	!
=51	=51	=51	=51	=51	=51	=51	=51	=51	=51	=51	=51
2C/	so-	.	2G\	so-	.	2c\	so-	.	2e-\	so-	.
4AA-X/	-lus	.	4A-\	-lus	.	4c\	-lus	.	4f\	-lus	.
4AA-/	al-	.	4A-\	al-	.	4c\	al-	.	4e-\	al-	.
!	!	!	!	!	!	!LO:PB:g=original	!	!	!LO:LB:g=original	!	!
=52	=52	=52	=52	=52	=52	=52	=52	=52	=52	=52	=52
4.BB-X/	-tis-	.	4.F\	-tis-	.	4.B-\	-tis-	.	4.d\	-tis-	.
8BB-/	-si-	.	8E-\	-si-	.	8B-\	-si-	.	8c\	-si-	.
4BB-/	-mus	.	4D\	-mus	.	4B-\	-mus	.	4B-\	-mus	.
[>4BB-/	Je-	.	4F\	Je-	.	4B-\	Je-	.	4d\	Je-	.
=53	=53	=53	=53	=53	=53	=53	=53	=53	=53	=53	=53
2.BB-/]	.	.	(4G\	.	.	(4B-\	.	.	(4e-\	.	.
.	.	.	2B-\)	.	.	4d\	.	.	4f\	.	.
.	.	.	.	.	.	4e-\)	.	.	4g\)	.	.
4BB-/	-su	.	4c\	-su	.	4f\	-su	.	4a-\	-su	.
=54	=54	=54	=54	=54	=54	=54	=54	=54	=54	=54	=54
4BB-/	Chri-	.	4B-\	Chri-	.	4d\	Chri-	.	4f\	Chri-	.
4BB-/	-ste	.	4B-\	-ste	.	4d\	-ste	.	4f\	-ste	.
4E-\	Je-	.	4B-\	Je-	.	4e-\	Je-	.	4g\	Je-	.
4E-\	-su	.	4B-\	-su	.	4e-\	-su	.	4g\	-su	.
!LO:LB:g=original	!	!	!LO:LB:g=original	!	!	!	!	!	!	!	!
=55	=55	=55	=55	=55	=55	=55	=55	=55	=55	=55	=55
4BB-/	Chri-	.	4B-\	Chri-	.	4d\	Chri-	.	4f\	Chri-	.
4BB-/	-ste	.	4B-\	-ste	.	4d\	-ste	.	4f\	-ste	.
4E-\	Je-	.	4B-\	Je-	.	4e-\	Je-	.	4g\	Je-	.
4E-\	-su	.	4B-\	-su	.	4e-\	-su	.	4g\	-su	.
!	!	!	!	!	!	!LO:LB:g=original	!	!	!LO:LB:g=original	!	!
=56	=56	=56	=56	=56	=56	=56	=56	=56	=56	=56	=56
[>1BB-	Chri-	.	1B-	Chri-	.	(<1d	Chri-	.	(1f	Chris-	.
=57	=57	=57	=57	=57	=57	=57	=57	=57	=57	=57	=57
1BB-]	.	.	1F	.	.	1B-)	.	.	1d)	.	.
=58	=58	=58	=58	=58	=58	=58	=58	=58	=58	=58	=58
!	!	!	!LO:TX:a:t=P:problem=pojedyncza kreska taktowa	!	!	!	!	!	!LO:SIC:v:l:s=-te	!	!LO:DY:rj
1BB-;	-ste	.	1D;	-ste	.	1F;	-ste	.	1B-;	-ste	f
=59|!	=59|!	=59|!	=59|!	=59|!	=59|!	=59|!	=59|!	=59|!	=59|!	=59|!	=59|!
!	!	!LO:DY:a	!	!	!	!	!	!	!	!	!
1BB-	Cum	p	4r	.	.	4r	.	.	4r	.	p
!	!	!	!	!	!	!	!	!LO:DY:rj	!	!	!
.	.	.	4En\	Cum	.	4G/	Cum	p	4c\	Cum	.
.	.	.	4E\	san-	.	4G/	san-	.	4c\	san-	.
.	.	.	4E\	-cto	.	4G/	-cto	.	4c\	-cto	.
=60	=60	=60	=60	=60	=60	=60	=60	=60	=60	=60	=60
2BB-/	san-	.	4.F\	spi-	.	4.A-/	spi-	.	4.c\	spi-	.
.	.	.	8A-\	-ri-	.	8c\	-ri-	.	8f\	-ri-	.
2BB-/	-cto	.	2A-\	-tu	.	2c\	-tu	.	2f\	-tu	.
!	!	!	!LO:LB:g=original	!	!	!LO:LB:g=original	!	!	!	!	!
=61	=61	=61	=61	=61	=61	=61	=61	=61	=61	=61	=61
2.BB-/	Spi-	.	4r	.	.	4r	.	.	4r	.	.
.	.	.	4D\	in	.	4F/	in	.	4B-X\	in	.
.	.	.	4D\	glo-	.	4F/	glo-	.	4B-\	glo-	.
4BB-/	-ri-	.	8D\	-ri-	.	8F/	-ri-	.	8B-\	-ri-	.
.	.	.	8D\	-a	.	8F/	-a	.	8B-\	-a	.
!LO:LB:g=original	!	!	!	!	!	!	!	!	!LO:LB:g=original	!	!
=62	=62	=62	=62	=62	=62	=62	=62	=62	=62	=62	=62
2BB-/	-tu	.	(4.E-X\	De-	.	(4.G/	De-	.	(4.B-\	De-	.
.	.	.	8G\)	.	.	8B-/)	.	.	8e-\)	.	.
2BB-/	in	.	2G\	-i	.	2B-/	-i	.	2e-\	-i	.
=63	=63	=63	=63	=63	=63	=63	=63	=63	=63	=63	=63
2.BB-/	glo-	.	4E-\	Pa-	.	4F/	Pa-	.	4A/	Pa-	.
.	.	.	4E-\	-tris	.	4F/	-tris	.	4A/	-tris	.
.	.	.	2E-\	a-	.	2F/	a-	.	2A/	a-	.
4BB-/	-ri-	.	.	.	.	.	.	.	.	.	.
=64	=64	=64	=64	=64	=64	=64	=64	=64	=64	=64	=64
2BB-/	-a	.	4D\	-men	.	4F/	-men	.	4B-/	-men	.
.	.	.	4r	.	.	4r	.	.	4r	.	.
2BB-/	a-	.	2E-\	a-	.	(>2G-X/	a-	.	(2A/	a-	.
!	!	!	!LO:PB:g=original	!	!	!LO:LB:g=original	!	!	!	!	!
=65	=65	=65	=65	=65	=65	=65	=65	=65	=65	=65	=65
[>1BB-	-men	.	2D\	.	.	2F/	.	.	2B-/	.	.
.	.	.	2E-\	.	.	2G-X/)	.	.	2A/)	.	.
=66	=66	=66	=66	=66	=66	=66	=66	=66	=66	=66	=66
!LO:TX:t=[segno]	!	!	!LO:TX:t=[segno]	!	!	!LO:TX:t=[segno]	!	!	!LO:TX:t=[segno]	!	!
1BB-;]	.	.	1D;	-men	.	1F;	-men	.	1B-;	-men	.
=67||	=67||	=67||	=67||	=67||	=67||	=67||	=67||	=67||	=67||	=67||	=67||
!	!	!LO:DY:rj	!	!	!	!LO:TX:a:t=3.	!	!	!LO:TX:a:t=2.	!	!
4.E-\	A-	f	2r	.	.	1r	.	.	1r	.	.
8E-\	-men	.	.	.	.	.	.	.	.	.	.
!	!	!	!	!	!LO:DY:rj	!	!	!	!	!	!
(8D/L	a-	.	4.B-\	A-	f	.	.	.	.	.	.
8C/	.	.	.	.	.	.	.	.	.	.	.
8D/	.	.	.	.	.	.	.	.	.	.	.
8BB-/J)	.	.	8B-\	-men	.	.	.	.	.	.	.
!LO:LB:g=original	!	!	!	!	!	!	!	!	!	!	!
=68	=68	=68	=68	=68	=68	=68	=68	=68	=68	=68	=68
4E-\	-men	.	8G\L	a-	.	1r	.	.	1r	.	.
.	.	.	8F\	.	.	.	.	.	.	.	.
8r	.	.	8G\	.	.	.	.	.	.	.	.
(8E-\	a-	.	8E-\J	.	.	.	.	.	.	.	.
4.D\	.	.	8F\L	.	.	.	.	.	.	.	.
.	.	.	16G\L	.	.	.	.	.	.	.	.
.	.	.	16An\JJ	.	.	.	.	.	.	.	.
.	.	.	[4B-\	.	.	.	.	.	.	.	.
16C/LL	.	.	.	.	.	.	.	.	.	.	.
16BB-/JJ	.	.	.	.	.	.	.	.	.	.	.
!	!	!	!LO:LB:g=original	!	!	!	!	!	!LO:LB:g=original	!	!
=69	=69	=69	=69	=69	=69	=69	=69	=69	=69	=69	=69
4.C/	.	.	8B-\L]	.	.	1r	.	.	2r	.	.
.	.	.	16A-X\L	.	.	.	.	.	.	.	.
.	.	.	16G\JJ	.	.	.	.	.	.	.	.
.	.	.	[4A-\	.	.	.	.	.	.	.	.
8D/	.	.	.	.	.	.	.	.	.	.	.
!	!	!	!	!	!	!	!	!	!	!	!LO:DY:rj
2E-\	.	.	8A-\L]	.	.	.	.	.	4.e-\	a-	f
.	.	.	16G\L	.	.	.	.	.	.	.	.
.	.	.	16F\JJ	.	.	.	.	.	.	.	.
.	.	.	4G\	.	.	.	.	.	.	.	.
.	.	.	.	.	.	.	.	.	8e-\	-men	.
=70	=70	=70	=70	=70	=70	=70	=70	=70	=70	=70	=70
!	!	!	!	!	!	!	!	!LO:DY:rj	!	!	!
4BB-/)	-men	.	4F\	-men	.	4.B-/	A-	f	8d\L	a-	.
.	.	.	.	.	.	.	.	.	8c\	.	.
4r	.	.	4r	.	.	.	.	.	8d\	.	.
.	.	.	.	.	.	8B-/	-men	.	8B-\J	.	.
2r	.	.	2r	.	.	8G/L	a-	.	4.e-\	.	.
.	.	.	.	.	.	8F/	.	.	.	.	.
.	.	.	.	.	.	8G/	.	.	.	.	.
.	.	.	.	.	.	8E-/J	.	.	8d\	.	.
=71	=71	=71	=71	=71	=71	=71	=71	=71	=71	=71	=71
*	*	*	*^	*	*	*	*	*	*	*	*
!LO:TX:t=2.	!	!	!LO:TX:a:t=3.	!LO:TX:b:t=2	!	!	!	!	!	!	!	!
1r	.	.	1r	1rGG	.	.	(4.A-/	.	.	8c\L	.	.
.	.	.	.	.	.	.	.	.	.	16d\L	.	.
.	.	.	.	.	.	.	.	.	.	16e-\JJ	.	.
.	.	.	.	.	.	.	.	.	.	[4f\	.	.
.	.	.	.	.	.	.	16G/LL	.	.	.	.	.
.	.	.	.	.	.	.	16F/JJ)	.	.	.	.	.
.	.	.	.	.	.	.	(4.G/	.	.	8f\L]	.	.
.	.	.	.	.	.	.	.	.	.	16e-\L	.	.
.	.	.	.	.	.	.	.	.	.	16d\JJ	.	.
.	.	.	.	.	.	.	.	.	.	[4e-\	.	.
.	.	.	.	.	.	.	16F/LL	.	.	.	.	.
.	.	.	.	.	.	.	16E-/JJ)	.	.	.	.	.
!	!	!	!	!	!	!	!LO:LB:g=original	!	!	!	!	!
=72	=72	=72	=72	=72	=72	=72	=72	=72	=72	=72	=72	=72
1r	.	.	1r	1rGG	.	.	4.F/	.	.	8e-\L]	.	.
.	.	.	.	.	.	.	.	.	.	16d\L	.	.
.	.	.	.	.	.	.	.	.	.	16c\JJ	.	.
.	.	.	.	.	.	.	.	.	.	8d\L	.	.
.	.	.	.	.	.	.	8F#X/	.	.	[8c\J	.	.
.	.	.	.	.	.	.	4.G/	.	.	8c\L]	.	.
.	.	.	.	.	.	.	.	.	.	16B\L	.	.
.	.	.	.	.	.	.	.	.	.	16A\JJ	.	.
.	.	.	.	.	.	.	.	.	.	4B\	.	.
.	.	f	.	.	.	.	8F/	.	.	.	.	.
!	!	!	!	!	!	!	!	!	!	!LO:LB:g=original	!	!
=73	=73	=73	=73	=73	=73	=73	=73	=73	=73	=73	=73	=73
*	*	*	*	*cue	*	*	*	*	*	*	*	*
!	!	!	!	!LO:TX:b:t=B II	!	!	!	!	!	!	!	!
4.C/	A-	.	1r	4.C	.	.	4E-/	.	.	8c\L	.	.
.	.	.	.	.	.	.	.	.	.	8d\	.	.
.	.	.	.	.	.	.	4c\	.	.	8e-\	.	.
8C/	-men	.	.	8C\	.	.	.	.	.	8f\J	.	.
(8BBn/L	a-	.	.	8BBn\L	.	.	2d\	.	.	4.g\	.	.
8AAn/	.	.	.	8AAn\	.	.	.	.	.	.	.	.
8BB/	.	.	.	8BB\	.	.	.	.	.	.	.	.
8GG/J)	.	.	.	8GG\J	.	.	.	.	.	[8f\	.	.
*	*	*	*	*Xcue	*	*	*	*	*	*	*	*
*	*	*	*v	*v	*	*	*	*	*	*	*	*
!LO:LB:g=original	!	!	!	!	!	!	!	!	!	!	!
=74	=74	=74	=74	=74	=74	=74	=74	=74	=74	=74	=74
!	!	!	!	!	!LO:DY:rj	!	!	!	!	!	!
4.C/	-men	.	2G\	a-	f	4c\	-men	.	8f\L]	.	.
.	.	.	.	.	.	.	.	.	16e-\L	.	.
.	.	.	.	.	.	.	.	.	16d\JJ	.	.
.	.	.	.	.	.	4r	.	.	8e-\L	.	.
8BB-X/	a-	.	.	.	.	.	.	.	8e\J	.	.
8AA-X/L	-a-	.	2c\	-men	.	2r	.	.	4.f\	.	.
8GG/	.	.	.	.	.	.	.	.	.	.	.
8AA-/	.	.	.	.	.	.	.	.	.	.	.
8AAn/J	.	.	.	.	.	.	.	.	8e-X\	.	.
=75	=75	=75	=75	=75	=75	=75	=75	=75	=75	=75	=75
4BB-/	-men	.	4.B-X\	a-	.	8B-\L	A-	.	4d\	-men	.
.	.	.	.	.	.	8c\	.	.	.	.	.
4r	.	.	.	.	.	8d\	.	.	4r	.	.
.	.	.	8B-\	-men	.	8e-\J	.	.	.	.	.
!	!	!	!LO:LB:g=original	!	!	!	!	!	!	!	!
2r	.	.	8An\L	a-	.	4.f\	.	.	2c\	a-	.
.	.	.	8G\	.	.	.	.	.	.	.	.
.	.	.	8A\	.	.	.	.	.	.	.	.
.	.	.	8F\J	.	.	[8e-\	.	.	.	.	.
!	!	!	!	!	!	!LO:LB:g=original	!	!	!	!	!
=76	=76	=76	=76	=76	=76	=76	=76	=76	=76	=76	=76
!	!	!	!	!	!	!LO:TX:a:t=P:problem=brak zakończenia ligatury	!	!	!LO:TX:t=P:problem=♭ above	!	!
!LO:TX:t=2.	!	!	!	!	!	!	!	!	!LO:SIC:s=4B-:t=poprawiona ołówkiem ćwierćnuta z 4cc na 4b-	!	!
1r	.	.	4B-\	-men	.	8e-\L]	.	.	4c\	-men	.
.	.	.	.	.	.	16d\L	.	.	.	.	.
.	.	.	.	.	.	16c\JJ	.	.	.	.	.
.	.	.	8r	.	.	4d\	.	.	4r	.	.
.	.	.	[8B-\	a-	.	.	.	.	.	.	.
.	.	.	8B-\L]	.	.	4.c\	.	.	2r	.	.
.	.	.	16A-X\L	.	.	.	.	.	.	.	.
.	.	.	16G\JJ	.	.	.	.	.	.	.	.
.	.	.	[4A-\	.	.	.	.	.	.	.	.
.	.	.	.	.	.	8f\	.	.	.	.	.
=77	=77	=77	=77	=77	=77	=77	=77	=77	=77	=77	=77
!	!	!	!	!	!	!	!	!	!LO:TX:a:t=1.	!	!
1r	.	.	8A-\L]	.	.	4.B-\	.	.	1r	.	.
.	.	.	16G\L	.	.	.	.	.	.	.	.
.	.	.	16F\JJ	.	.	.	.	.	.	.	.
.	.	.	4G\	.	.	.	.	.	.	.	.
.	.	.	.	.	.	8e-\	.	.	.	.	.
.	.	.	4F\	.	.	8e-\L	.	.	.	.	.
.	.	.	.	.	.	16d\L	.	.	.	.	.
.	.	.	.	.	.	16c\JJ	.	.	.	.	.
.	.	.	8B-\L	.	.	4d\	.	.	.	.	.
.	.	.	8A-\J	.	.	.	.	.	.	.	.
!	!	!	!LO:LB:g=original	!	!	!	!	!	!LO:LB:g=original	!	!
=78	=78	=78	=78	=78	=78	=78	=78	=78	=78	=78	=78
!	!	!LO:DY:rj	!	!	!	!	!	!	!	!	!
4.E-\	A-	f	8G\	-men	.	8e-\	-men	.	(2e-\	a-	.
.	.	.	(8G\L	a-	.	8B-/L	a-	.	.	.	.
.	.	.	8F\J)	.	.	8A-/J	.	.	.	.	.
8E-\	-men	.	8E-\	-men	.	8G/	-men	.	.	.	.
!	!	!	!	!	!	!LO:TX:a:t=P:problem=brak początku ligatury	!	!	!	!	!
(8D/L	a-	.	[2B-\	a-	.	(2A-/	a-	.	4.f\)	.	.
8C/	.	.	.	.	.	.	.	.	.	.	.
8D/	.	.	.	.	.	.	.	.	.	.	.
8BB-/J)	.	.	.	.	.	.	.	.	8f\	-men	.
!	!	!	!	!	!	!LO:LB:g=original	!	!	!	!	!
=79	=79	=79	=79	=79	=79	=79	=79	=79	=79	=79	=79
4.D-X/	-men	.	8B-\L]	.	.	8G/L)	.	.	(2e-\	a-	.
.	.	.	8A-\	.	.	8A-/	.	.	.	.	.
.	.	.	8G\	.	.	8B-/	.	.	.	.	.
8D-/	a-	.	8B-\J	.	.	8G/J	.	.	.	.	.
8C/L	.	.	2A-\	-men	.	2A-/	.	.	4.e-\)	.	.
8BB-/	.	.	.	.	.	.	.	.	.	.	.
8C/	.	.	.	.	.	.	.	.	.	.	.
8AA-/J	.	.	.	.	.	.	.	.	8e-\	-men	.
!LO:LB:g=original	!	!	!	!	!	!	!	!	!	!	!
=80	=80	=80	=80	=80	=80	=80	=80	=80	=80	=80	=80
4C-X/	.	.	(2.G-X\	a-	.	4A/	.	.	[2e-\	a-	.
4BB-/	-men	.	.	.	.	4B-/	.	.	.	.	.
2AAn/	a-	.	.	.	.	2c\	.	.	4.e-\]	.	.
.	.	.	4F\)	.	.	.	.	.	.	.	.
.	.	.	.	.	.	.	.	.	16f\LL	.	.
.	.	.	.	.	.	.	.	.	16e-\JJ	.	.
=81	=81	=81	=81	=81	=81	=81	=81	=81	=81	=81	=81
4BB-/	-men	.	4F\	-men	.	4B-\	.	.	8d\	-men	.
.	.	.	.	.	.	.	.	.	8B-\L	a-	.
8r	.	.	4r	.	.	4B-\	.	.	8d\	.	.
8BB-/	a-	.	.	.	.	.	.	.	8e-\J	.	.
8AAn/L	.	.	4r	.	.	2c\	.	.	4.f\	.	.
8FF/	.	.	.	.	.	.	.	.	.	.	.
8GG/	.	.	[4F\	a-	.	.	.	.	.	.	.
8AA/J	.	.	.	.	.	.	.	.	8e-\	.	.
!	!	!	!LO:LB:g=original	!	!	!	!	!	!LO:LB:g=original	!	!
=82	=82	=82	=82	=82	=82	=82	=82	=82	=82	=82	=82
4.BB-/	.	.	8F\L]	.	.	4B-\	-men	.	8d\L	.	.
.	.	.	8D\	.	.	.	.	.	8B-\	.	.
.	.	.	8E-\	.	.	4r	.	.	8c\	.	.
8AA-X/	.	.	8F\J	.	.	.	.	.	8d\J	.	.
4GG/	-men	.	8E-\	-men	.	8r	.	.	4.e-\	.	.
.	.	.	(8E-\L	a-	.	8G/L	a-	.	.	.	.
4r	.	.	8F\	.	.	8A-/	.	.	.	.	.
.	.	.	8G\J)	.	.	8B-/J	.	.	8d\	.	.
!	!	!	!	!	!	!LO:LB:g=original	!	!	!	!	!
=83	=83	=83	=83	=83	=83	=83	=83	=83	=83	=83	=83
!LO:TX:b:t=1.	!	!	!	!	!	!	!	!	!	!	!
1r	.	.	8A-\	-men	.	8c\	-men	.	8c\	.	.
.	.	.	(8F\L	a-	.	(8A/L	a-	.	4f\	.	.
.	.	.	8G\	.	.	8B-/	.	.	.	.	.
.	.	.	8An\J)	.	.	8c/J)	.	.	8e-\	.	.
.	.	.	8B-\	-men	.	8d\	-men	.	8d\	.	.
.	.	.	(8G\L	a-	.	(8B\L	a-	.	4g\	.	.
.	.	.	8An\	.	.	8c\	.	.	.	.	.
.	.	.	8Bn\J)	.	.	8d\J)	.	.	8f\	.	.
=84	=84	=84	=84	=84	=84	=84	=84	=84	=84	=84	=84
(<4.C/	A-	.	1c	.	.	8c\	-men	.	8e\	-men	.
.	.	.	.	.	.	8r	.	.	8c\L	a-	.
.	.	.	.	.	.	4r	.	.	8d\	.	.
8B-\	.	.	.	.	.	.	.	.	8e\J	.	.
8An\L	.	.	.	.	.	2r	.	.	4.f\	.	.
8F\	.	.	.	.	.	.	.	.	.	.	.
8G\	.	.	.	.	.	.	.	.	.	.	.
8A\J)	.	.	.	.	.	.	.	.	8e-X\	.	.
!LO:LB:g=original	!	!	!	!	!	!	!	!	!LO:LB:g=original	!	!
=85	=85	=85	=85	=85	=85	=85	=85	=85	=85	=85	=85
!	!	!	!	!	!	!LO:TX:a:t=2.	!	!	!	!	!
4.B-\	.	.	1B-X	.	.	1r	.	.	8d\L	.	.
.	.	.	.	.	.	.	.	.	8B-\	.	.
.	.	.	.	.	.	.	.	.	8c\	.	.
8A-X\	.	.	.	.	.	.	.	.	8d\J	.	.
8G\L	.	.	.	.	.	.	.	.	4.e-\	.	.
8E-\	.	.	.	.	.	.	.	.	.	.	.
8F\	.	.	.	.	.	.	.	.	.	.	.
8G\J	.	.	.	.	.	.	.	.	8d\	.	.
=86	=86	=86	=86	=86	=86	=86	=86	=86	=86	=86	=86
4A-\	.	.	2c\	.	.	1r	.	.	8c\L	.	.
.	.	.	.	.	.	.	.	.	8d\	.	.
4An\	.	.	.	.	.	.	.	.	8e-\	.	.
.	.	.	.	.	.	.	.	.	8f\J	.	.
4B-\	.	.	4B-\	-men	.	.	.	.	4B-\	-men	.
4BB-/	-men	.	4r	.	.	.	.	.	4r	.	.
!	!	!	!LO:LB:g=original	!	!	!	!	!	!	!	!
=87	=87	=87	=87	=87	=87	=87	=87	=87	=87	=87	=87
[>1BB-	A-	.	2En\	a-	.	(2G/	A-	.	4r	.	.
.	.	.	.	.	.	.	.	.	[4c\	a-	.
.	.	.	2F\	.	.	2A-/	.	.	8c\L]	.	.
.	.	.	.	.	.	.	.	.	8e\	.	.
.	.	.	.	.	.	.	.	.	8f\	.	.
.	.	.	.	.	.	.	.	.	8a-\J	.	.
=88	=88	=88	=88	=88	=88	=88	=88	=88	=88	=88	=88
1BB-_>	.	.	2D\	.	.	2F/)	.	.	4B-X\	-men	.
.	.	.	.	.	.	.	.	.	[4B-\	a-	.
.	.	.	2E-X\	-men	.	2G/	-men	.	8B-\L]	.	.
.	.	.	.	.	.	.	.	.	8d\	.	.
.	.	.	.	.	.	.	.	.	8e-X\	.	.
.	.	.	.	.	.	.	.	.	[8g\J	.	.
!	!	!	!	!	!	!LO:LB:g=original	!	!	!LO:LB:g=original	!	!
=89	=89	=89	=89	=89	=89	=89	=89	=89	=89	=89	=89
1BB-_>	.	.	(4A-\	a-	.	(4c\	a-	.	8g\]	.	.
.	.	.	.	.	.	.	.	.	4f\	.	.
.	.	.	4G\	.	.	4B-\	.	.	.	.	.
.	.	.	.	.	.	.	.	.	4e-\	.	.
.	.	.	4F\	.	.	4A-/	.	.	.	.	.
.	.	.	.	.	.	.	.	.	4d\	.	.
.	.	.	4E-\)	.	.	4G/)	.	.	.	.	.
.	.	.	.	.	.	.	.	.	8c\	.	.
=90	=90	=90	=90	=90	=90	=90	=90	=90	=90	=90	=90
4BB-/]	.	.	4D\	-men	.	4F/	-men	.	4B-\	-men	.
4BBn/	.	.	(4d\	a-	.	(4f\	a-	.	(<4a-\	a-	.
4C/	.	.	4c\)	.	.	4e-\)	.	.	4g\)	.	.
4AAn/	-men	.	4c\	-men	.	4e-\	-men	.	4f\	-men	.
!LO:LB:g=original	!	!	!	!	!	!	!	!	!	!	!
=91	=91	=91	=91	=91	=91	=91	=91	=91	=91	=91	=91
!LO:TX:t=[segno]	!	!	!LO:TX:t=[segno]	!	!	!	!	!	!	!	!
1BB-X	A-	.	1B-	a-	.	(2e-\	a-	.	(<2g\	a-	.
!	!	!	!	!	!	!LO:TX:t=[segno]	!	!	!LO:TX:t=[segno]	!	!
.	.	.	.	.	.	2d\)	.	.	2f\)	.	.
=92!|:	=92!|:	=92!|:	=92!|:	=92!|:	=92!|:	=92!|:	=92!|:	=92!|:	=92!|:	=92!|:	=92!|:
*>B	*	*	*>B	*	*	*>B	*	*	*>B	*	*
4.E-\	-men	.	4G\	-men	.	4e-\	-men	.	8e-\	-men	.
.	.	.	.	.	.	.	.	.	8B-\L	a-	.
.	.	.	4G\	a-	.	2.B-\	a-	.	8d\	.	.
8E-\	A-	.	.	.	.	.	.	.	8e-\J	.	.
(8D/L	.	.	2A-\	.	.	.	.	.	2f\	.	.
8C/	.	.	.	.	.	.	.	.	.	.	.
8D/	.	.	.	.	.	.	.	.	.	.	.
8BB-/J)	.	.	.	.	.	.	.	.	.	.	.
!	!	!	!LO:LB:g=original	!	!	!LO:LB:g=original	!	!	!LO:LB:g=original	!	!
=93	=93	=93	=93	=93	=93	=93	=93	=93	=93	=93	=93
4.E-\	-men	.	4G\	-men	.	4B-\	-men	.	8e-,\	-men	.
.	.	.	.	.	.	.	.	.	8B-\L	a-	.
.	.	.	4G\	a-	.	(2.B-\	A-	.	8d\	.	.
(<8E-\	A-	.	.	.	.	.	.	.	8e-\J	.	.
8D/L	.	.	2A-\	.	.	.	.	.	2f\	.	.
8C/	.	.	.	.	.	.	.	.	.	.	.
8D/	.	.	.	.	.	.	.	.	.	.	.
8BB-/J)	.	.	.	.	.	.	.	.	.	.	.
=94	=94	=94	=94	=94	=94	=94	=94	=94	=94	=94	=94
4E-\	-men	.	(2G\	-men	.	2B-/	.	.	2.e-\	.	.
(<4D-X\	a-	.	.	.	.	.	.	.	.	.	.
4C/	.	.	4A-\)	a-	.	4A-/)	.	.	.	.	.
4C-X/	.	.	4E-\	-men	.	4A/	-men	.	4e-\	-men	.
!LO:LB:g=original	!	!	!	!	!	!	!	!	!	!	!
=95	=95	=95	=95	=95	=95	=95	=95	=95	=95	=95	=95
1BB-)	.	.	4G\	a-	.	(4B-/	a-	.	[2e-\	a-	.
.	.	.	4G-X\	.	.	4A/	.	.	.	.	.
.	.	.	2F\	.	.	2A-X/)	.	.	8e-\L]	.	.
.	.	.	.	.	.	.	.	.	8d\	.	.
.	.	.	.	.	.	.	.	.	8c\	.	.
.	.	.	.	.	.	.	.	.	8d\J	.	.
=96:|!	=96:|!	=96:|!	=96:|!	=96:|!	=96:|!	=96:|!	=96:|!	=96:|!	=96:|!	=96:|!	=96:|!
*>C	*	*	*>C	*	*	*>C	*	*	*>C	*	*
4E-\	-men	.	4G\	-men	.	4G/	-men	.	4e-\	-men	.
4r	.	.	4r	.	.	4r	.	.	4r	.	.
2B-\	A-	.	2B-\	a-	.	2d\	a-	.	2f\	a-	.
!	!	!	!LO:LB:g=original	!	!	!	!	!	!	!	!
=97	=97	=97	=97	=97	=97	=97	=97	=97	=97	=97	=97
4E-\	-men	.	4B-\	-men	.	4e-\	-men	.	4g\	-men	.
4r	.	.	4r	.	.	4r	.	.	4r	.	.
2BB-/	A-	.	2F\	a-	.	2A-/	a-	.	2d\	a-	.
!	!	!	!	!	!	!LO:LB:g=original	!	!	!LO:LB:g=original	!	!
=98	=98	=98	=98	=98	=98	=98	=98	=98	=98	=98	=98
4E-\	-men.	.	4E-\	-men.	.	4G/	-men	.	4e-\	-men.	.
4r	.	.	4r	.	.	4r	.	.	4r	.	.
2r;	.	.	2r	.	.	2r;	.	.	2r;	.	.
==	==	==	==	==	==	==	==	==	==	==	==
*-	*-	*-	*-	*-	*-	*-	*-	*-	*-	*-	*-
!!!system-decoration: [(s1,s2,s3,s4)]
!!!RDF**kern: > = above
!!!RDF**kern: < = below
!!!ENC: Marta Lawrence
!!!END: 2021-03-26
!!!ENC: Kamil Watkowski
!!!END: 2021-03-06
